places/24/user-desktop.svg

<?xml version="1.0" encoding="UTF-8" standalone="no"?>
<!-- Created with Inkscape (http://www.inkscape.org/) -->

<svg
   xmlns:svg="http://www.w3.org/2000/svg"
   xmlns="http://www.w3.org/2000/svg"
   xmlns:xlink="http://www.w3.org/1999/xlink"
   version="1.0"
   width="24"
   height="24"
   id="svg3861">
  <defs
     id="defs3863">
    <linearGradient
       id="linearGradient5060">
      <stop
         id="stop5062"
         style="stop-color:black;stop-opacity:1"
         offset="0" />
      <stop
         id="stop5064"
         style="stop-color:black;stop-opacity:0"
         offset="1" />
    </linearGradient>
    <linearGradient
       id="linearGradient5048">
      <stop
         id="stop5050"
         style="stop-color:black;stop-opacity:0"
         offset="0" />
      <stop
         id="stop5056"
         style="stop-color:black;stop-opacity:1"
         offset="0.5" />
      <stop
         id="stop5052"
         style="stop-color:black;stop-opacity:0"
         offset="1" />
    </linearGradient>
    <linearGradient
       id="linearGradient3390">
      <stop
         id="stop3392"
         style="stop-color:#425e7b;stop-opacity:1"
         offset="0" />
      <stop
         id="stop3394"
         style="stop-color:#7a91a7;stop-opacity:1"
         offset="1" />
    </linearGradient>
    <linearGradient
       id="linearGradient7012-661-145-733-759-865-745">
      <stop
         id="stop2699"
         style="stop-color:#9cbbd9;stop-opacity:1"
         offset="0" />
      <stop
         id="stop2701"
         style="stop-color:#5c82ab;stop-opacity:1"
         offset="1" />
    </linearGradient>
    <linearGradient
       id="linearGradient3282">
      <stop
         id="stop3284"
         style="stop-color:black;stop-opacity:1"
         offset="0" />
      <stop
         id="stop3286"
         style="stop-color:black;stop-opacity:0"
         offset="1" />
    </linearGradient>
    <linearGradient
       id="linearGradient2446-733">
      <stop
         id="stop3464"
         style="stop-color:white;stop-opacity:1"
         offset="0" />
      <stop
         id="stop3466"
         style="stop-color:#dbdbdb;stop-opacity:1"
         offset="1" />
    </linearGradient>
    <linearGradient
       id="linearGradient8265-821-176-38-919-66-249">
      <stop
         id="stop2687"
         style="stop-color:white;stop-opacity:1"
         offset="0" />
      <stop
         id="stop2689"
         style="stop-color:white;stop-opacity:0"
         offset="1" />
    </linearGradient>
    <linearGradient
       id="linearGradient2238">
      <stop
         id="stop2240"
         style="stop-color:white;stop-opacity:1"
         offset="0" />
      <stop
         id="stop2242"
         style="stop-color:white;stop-opacity:0"
         offset="1" />
    </linearGradient>
    <linearGradient
       x1="302.85715"
       y1="366.64789"
       x2="302.85715"
       y2="609.50507"
       id="linearGradient2490"
       xlink:href="#linearGradient5048"
       gradientUnits="userSpaceOnUse"
       gradientTransform="matrix(2.774389,0,0,1.969706,-1892.179,-872.8854)" />
    <radialGradient
       cx="605.71429"
       cy="486.64789"
       r="117.14286"
       fx="605.71429"
       fy="486.64789"
       id="radialGradient2492"
       xlink:href="#linearGradient5060"
       gradientUnits="userSpaceOnUse"
       gradientTransform="matrix(2.774389,0,0,1.969706,-1891.633,-872.8854)" />
    <radialGradient
       cx="605.71429"
       cy="486.64789"
       r="117.14286"
       fx="605.71429"
       fy="486.64789"
       id="radialGradient2494"
       xlink:href="#linearGradient5060"
       gradientUnits="userSpaceOnUse"
       gradientTransform="matrix(-2.774389,0,0,1.969706,112.7623,-872.8854)" />
    <linearGradient
       x1="2.8828752"
       y1="2.9345543"
       x2="30.128326"
       y2="31.212822"
       id="linearGradient2497"
       xlink:href="#linearGradient2238"
       gradientUnits="userSpaceOnUse"
       gradientTransform="matrix(0.4662133,0,0,0.3842123,0.8103188,3.1654189)" />
    <linearGradient
       x1="33.579403"
       y1="6.4673662"
       x2="33.579403"
       y2="12.53143"
       id="linearGradient2501"
       xlink:href="#linearGradient2446-733"
       gradientUnits="userSpaceOnUse"
       gradientTransform="matrix(0.3982651,0,0,0.3279539,-0.831814,1.8790019)" />
    <linearGradient
       x1="24.682861"
       y1="11.378383"
       x2="24.682861"
       y2="13.523027"
       id="linearGradient2504"
       xlink:href="#linearGradient3282"
       gradientUnits="userSpaceOnUse"
       gradientTransform="matrix(0.4781375,0,0,0.3510062,0.5275382,2.2561158)" />
    <radialGradient
       cx="14.549862"
       cy="17.358982"
       r="23"
       fx="14.549862"
       fy="17.358982"
       id="radialGradient2507"
       xlink:href="#linearGradient7012-661-145-733-759-865-745"
       gradientUnits="userSpaceOnUse"
       gradientTransform="matrix(1.210779e-8,0.499336,-0.674457,0,18.231943,0.9704073)" />
    <linearGradient
       x1="39.964977"
       y1="40.569199"
       x2="-0.022119235"
       y2="2.9977107"
       id="linearGradient2509"
       xlink:href="#linearGradient3390"
       gradientUnits="userSpaceOnUse"
       gradientTransform="matrix(0.4893421,0,0,0.4150801,0.2558013,2.0329901)" />
    <linearGradient
       x1="16.626165"
       y1="15.298182"
       x2="20.054544"
       y2="24.627615"
       id="linearGradient2511"
       xlink:href="#linearGradient8265-821-176-38-919-66-249"
       gradientUnits="userSpaceOnUse" />
  </defs>
  <g
     id="layer1">
    <g
       transform="matrix(0.01182016,0,0,0.00990682,22.513267,18.753927)"
       id="g5022">
      <rect
         width="1339.6335"
         height="478.35718"
         x="-1559.2523"
         y="-150.69685"
         id="rect2512"
         style="opacity:0.40206185;fill:url(#linearGradient2490);fill-opacity:1;fill-rule:nonzero;stroke:none;stroke-width:1;marker:none;visibility:visible;display:inline;overflow:visible" />
      <path
         d="m -219.61876,-150.68038 c 0,0 0,478.33079 0,478.33079 142.874166,0.90045 345.40022,-107.16966 345.40014,-239.196175 0,-132.026537 -159.436816,-239.134595 -345.40014,-239.134615 z"
         id="path2514"
         style="opacity:0.40206185;fill:url(#radialGradient2492);fill-opacity:1;fill-rule:nonzero;stroke:none;stroke-width:1;marker:none;visibility:visible;display:inline;overflow:visible" />
      <path
         d="m -1559.2523,-150.68038 c 0,0 0,478.33079 0,478.33079 -142.8742,0.90045 -345.4002,-107.16966 -345.4002,-239.196175 0,-132.026537 159.4368,-239.134595 345.4002,-239.134615 z"
         id="path2516"
         style="opacity:0.40206185;fill:url(#radialGradient2494);fill-opacity:1;fill-rule:nonzero;stroke:none;stroke-width:1;marker:none;visibility:visible;display:inline;overflow:visible" />
    </g>
    <rect
       width="22.997868"
       height="16.997868"
       rx="0.87324154"
       ry="0.76308256"
       x="0.50106651"
       y="3.501066"
       id="rect1316"
       style="fill:url(#radialGradient2507);fill-opacity:1;fill-rule:evenodd;stroke:url(#linearGradient2509);stroke-width:1.00213301;stroke-linecap:round;stroke-linejoin:round;stroke-miterlimit:4;stroke-opacity:1;stroke-dasharray:none;stroke-dashoffset:0" />
    <rect
       width="21.999165"
       height="1.4999993"
       rx="0.66393489"
       ry="0"
       x="1"
       y="5.5000005"
       id="rect1436"
       style="opacity:0.2;fill:url(#linearGradient2504);fill-opacity:1;fill-rule:evenodd;stroke:none;stroke-width:1.00000012;marker:none;visibility:visible;display:inline;overflow:visible" />
    <path
       d="m 1.7057386,4.000319 c 6.8726343,0 13.8120754,0.00427 20.6847074,0.00427 0.731778,0.074617 0.597859,0.4795072 0.603046,0.9539253 0.0091,0.8333347 -0.01179,1.0124469 0.003,1.0151855 -2.721681,0.036158 -5.997909,-0.00562 -8.720755,0.00466 -4.196085,0 -9.0740118,-0.00175 -13.2700965,-0.00175 0.00389,0.00616 0.00154,-0.1937408 0.00154,-1.1287947 0,-0.4396329 0.2516439,-0.8610686 0.6985264,-0.8474981 z"
       id="rect2311"
       style="fill:url(#linearGradient2501);fill-opacity:1;fill-rule:evenodd;stroke:none;stroke-width:1.00000012;marker:none;visibility:visible;display:inline;overflow:visible" />
    <path
       d="m 3.21875,5.96875 c -1.208277,0 -2.1875,0.9792231 -2.1875,2.1875 l 0,16 A 0.48127135,0.48127135 0 0 0 1.5625,24.625 l 45,-7.125 a 0.48127135,0.48127135 0 0 0 0.40625,-0.46875 l 0,-8.875 c 0,-1.2082769 -0.979223,-2.1875 -2.1875,-2.1875 l -41.5625,0 z"
       transform="matrix(0.4789598,0,0,0.4571872,0.5049639,1.2696079)"
       id="path3333"
       style="opacity:0.2;fill:url(#linearGradient2511);fill-opacity:1;fill-rule:evenodd;stroke:none" />
    <rect
       width="20.997868"
       height="14.997867"
       rx="0.45332429"
       ry="0.38678172"
       x="1.5010664"
       y="4.5010667"
       id="rect2232"
       style="opacity:0.4;fill:none;stroke:url(#linearGradient2497);stroke-width:1.00213301;stroke-linecap:round;stroke-linejoin:round;stroke-miterlimit:4;stroke-opacity:1;stroke-dasharray:none;stroke-dashoffset:0" />
  </g>
</svg>

<?xml version="1.0" encoding="UTF-8" standalone="no"?>
<!-- Created with Inkscape (http://www.inkscape.org/) -->
<svg
   xmlns:dc="http://purl.org/dc/elements/1.1/"
   xmlns:cc="http://creativecommons.org/ns#"
   xmlns:rdf="http://www.w3.org/1999/02/22-rdf-syntax-ns#"
   xmlns:svg="http://www.w3.org/2000/svg"
   xmlns="http://www.w3.org/2000/svg"
   xmlns:xlink="http://www.w3.org/1999/xlink"
   xmlns:sodipodi="http://sodipodi.sourceforge.net/DTD/sodipodi-0.dtd"
   xmlns:inkscape="http://www.inkscape.org/namespaces/inkscape"
   width="24"
   height="24"
   id="svg3861"
   sodipodi:version="0.32"
   inkscape:version="0.46"
   sodipodi:docname="user-desktop.svg"
   inkscape:output_extension="org.inkscape.output.svg.inkscape"
   version="1.0">
  <defs
     id="defs3863">
    <linearGradient
       id="linearGradient5060"
       inkscape:collect="always">
      <stop
         style="stop-color:black;stop-opacity:1;"
         id="stop5062"
         offset="0" />
      <stop
         style="stop-color:black;stop-opacity:0;"
         id="stop5064"
         offset="1" />
    </linearGradient>
    <linearGradient
       id="linearGradient5048">
      <stop
         style="stop-color:black;stop-opacity:0;"
         id="stop5050"
         offset="0" />
      <stop
         style="stop-color:black;stop-opacity:1;"
         id="stop5056"
         offset="0.5" />
      <stop
         style="stop-color:black;stop-opacity:0;"
         id="stop5052"
         offset="1" />
    </linearGradient>
    <linearGradient
       inkscape:collect="always"
       id="linearGradient3390">
      <stop
         style="stop-color:#425e7b;stop-opacity:1"
         offset="0"
         id="stop3392" />
      <stop
         style="stop-color:#7a91a7;stop-opacity:1"
         offset="1"
         id="stop3394" />
    </linearGradient>
    <linearGradient
       id="linearGradient7012-661-145-733-759-865-745">
      <stop
         id="stop2699"
         offset="0"
         style="stop-color:#9cbbd9;stop-opacity:1;" />
      <stop
         id="stop2701"
         offset="1"
         style="stop-color:#5c82ab;stop-opacity:1;" />
    </linearGradient>
    <linearGradient
       id="linearGradient3282"
       inkscape:collect="always">
      <stop
         id="stop3284"
         offset="0"
         style="stop-color:#000000;stop-opacity:1;" />
      <stop
         id="stop3286"
         offset="1"
         style="stop-color:#000000;stop-opacity:0;" />
    </linearGradient>
    <linearGradient
       id="linearGradient2446-733">
      <stop
         style="stop-color:#ffffff;stop-opacity:1;"
         offset="0"
         id="stop3464" />
      <stop
         style="stop-color:#dbdbdb;stop-opacity:1;"
         offset="1"
         id="stop3466" />
    </linearGradient>
    <linearGradient
       id="linearGradient8265-821-176-38-919-66-249"
       inkscape:collect="always">
      <stop
         id="stop2687"
         offset="0"
         style="stop-color:#ffffff;stop-opacity:1;" />
      <stop
         id="stop2689"
         offset="1"
         style="stop-color:#ffffff;stop-opacity:0;" />
    </linearGradient>
    <linearGradient
       id="linearGradient2238"
       inkscape:collect="always">
      <stop
         style="stop-color:#ffffff;stop-opacity:1;"
         id="stop2240"
         offset="0" />
      <stop
         style="stop-color:#ffffff;stop-opacity:0;"
         id="stop2242"
         offset="1" />
    </linearGradient>
    <linearGradient
       inkscape:collect="always"
       xlink:href="#linearGradient5048"
       id="linearGradient2490"
       gradientUnits="userSpaceOnUse"
       gradientTransform="matrix(2.774389,0,0,1.969706,-1892.179,-872.8854)"
       x1="302.85715"
       y1="366.64789"
       x2="302.85715"
       y2="609.50507" />
    <radialGradient
       inkscape:collect="always"
       xlink:href="#linearGradient5060"
       id="radialGradient2492"
       gradientUnits="userSpaceOnUse"
       gradientTransform="matrix(2.774389,0,0,1.969706,-1891.633,-872.8854)"
       cx="605.71429"
       cy="486.64789"
       fx="605.71429"
       fy="486.64789"
       r="117.14286" />
    <radialGradient
       inkscape:collect="always"
       xlink:href="#linearGradient5060"
       id="radialGradient2494"
       gradientUnits="userSpaceOnUse"
       gradientTransform="matrix(-2.774389,0,0,1.969706,112.7623,-872.8854)"
       cx="605.71429"
       cy="486.64789"
       fx="605.71429"
       fy="486.64789"
       r="117.14286" />
    <linearGradient
       inkscape:collect="always"
       xlink:href="#linearGradient2238"
       id="linearGradient2497"
       gradientUnits="userSpaceOnUse"
       gradientTransform="matrix(0.4662133,0,0,0.3842123,0.8103188,3.1654189)"
       x1="2.8828752"
       y1="2.9345543"
       x2="30.128326"
       y2="31.212822" />
    <linearGradient
       inkscape:collect="always"
       xlink:href="#linearGradient2446-733"
       id="linearGradient2501"
       gradientUnits="userSpaceOnUse"
       gradientTransform="matrix(0.3982651,0,0,0.3279539,-0.831814,1.8790019)"
       x1="33.579403"
       y1="6.4673662"
       x2="33.579403"
       y2="12.53143" />
    <linearGradient
       inkscape:collect="always"
       xlink:href="#linearGradient3282"
       id="linearGradient2504"
       gradientUnits="userSpaceOnUse"
       gradientTransform="matrix(0.4781375,0,0,0.3510062,0.5275382,2.2561158)"
       x1="24.682861"
       y1="11.378383"
       x2="24.682861"
       y2="13.523027" />
    <radialGradient
       inkscape:collect="always"
       xlink:href="#linearGradient7012-661-145-733-759-865-745"
       id="radialGradient2507"
       gradientUnits="userSpaceOnUse"
       gradientTransform="matrix(1.210779e-8,0.499336,-0.674457,0,18.231943,0.9704073)"
       cx="14.549862"
       cy="17.358982"
       fx="14.549862"
       fy="17.358982"
       r="23" />
    <linearGradient
       inkscape:collect="always"
       xlink:href="#linearGradient3390"
       id="linearGradient2509"
       gradientUnits="userSpaceOnUse"
       gradientTransform="matrix(0.4893421,0,0,0.4150801,0.2558013,2.0329901)"
       x1="39.964977"
       y1="40.569199"
       x2="-0.022119235"
       y2="2.9977107" />
    <linearGradient
       inkscape:collect="always"
       xlink:href="#linearGradient8265-821-176-38-919-66-249"
       id="linearGradient2511"
       gradientUnits="userSpaceOnUse"
       x1="16.626165"
       y1="15.298182"
       x2="20.054544"
       y2="24.627615" />
  </defs>
  <sodipodi:namedview
     id="base"
     pagecolor="#ffffff"
     bordercolor="#666666"
     borderopacity="1.0"
     inkscape:pageopacity="0.0"
     inkscape:pageshadow="2"
     inkscape:zoom="24.208333"
     inkscape:cx="10.843373"
     inkscape:cy="12"
     inkscape:current-layer="layer1"
     showgrid="true"
     inkscape:grid-bbox="true"
     inkscape:document-units="px"
     inkscape:window-width="1440"
     inkscape:window-height="794"
     inkscape:window-x="0"
     inkscape:window-y="24" />
  <metadata
     id="metadata3866">
    <rdf:RDF>
      <cc:Work
         rdf:about="">
        <dc:format>image/svg+xml</dc:format>
        <dc:type
           rdf:resource="http://purl.org/dc/dcmitype/StillImage" />
      </cc:Work>
    </rdf:RDF>
  </metadata>
  <g
     id="layer1"
     inkscape:label="Layer 1"
     inkscape:groupmode="layer">
    <g
       transform="matrix(1.1820156e-2,0,0,9.9068246e-3,22.513267,18.753927)"
       id="g5022">
      <rect
         id="rect2512"
         x="-1559.2523"
         y="-150.69685"
         width="1339.6335"
         height="478.35718"
         style="opacity:0.40206185;fill:url(#linearGradient2490);fill-opacity:1;fill-rule:nonzero;stroke:none;stroke-width:1;stroke-linecap:round;stroke-linejoin:miter;marker:none;marker-start:none;marker-mid:none;marker-end:none;stroke-miterlimit:4;stroke-dasharray:none;stroke-dashoffset:0;stroke-opacity:1;visibility:visible;display:inline;overflow:visible" />
      <path
         d="M -219.61876,-150.68038 C -219.61876,-150.68038 -219.61876,327.65041 -219.61876,327.65041 C -76.744594,328.55086 125.78146,220.48075 125.78138,88.454235 C 125.78138,-43.572302 -33.655436,-150.68036 -219.61876,-150.68038 z"
         id="path2514"
         style="opacity:0.40206185;fill:url(#radialGradient2492);fill-opacity:1;fill-rule:nonzero;stroke:none;stroke-width:1;stroke-linecap:round;stroke-linejoin:miter;marker:none;marker-start:none;marker-mid:none;marker-end:none;stroke-miterlimit:4;stroke-dasharray:none;stroke-dashoffset:0;stroke-opacity:1;visibility:visible;display:inline;overflow:visible"
         sodipodi:nodetypes="cccc" />
      <path
         id="path2516"
         d="M -1559.2523,-150.68038 C -1559.2523,-150.68038 -1559.2523,327.65041 -1559.2523,327.65041 C -1702.1265,328.55086 -1904.6525,220.48075 -1904.6525,88.454235 C -1904.6525,-43.572302 -1745.2157,-150.68036 -1559.2523,-150.68038 z"
         style="opacity:0.40206185;fill:url(#radialGradient2494);fill-opacity:1;fill-rule:nonzero;stroke:none;stroke-width:1;stroke-linecap:round;stroke-linejoin:miter;marker:none;marker-start:none;marker-mid:none;marker-end:none;stroke-miterlimit:4;stroke-dasharray:none;stroke-dashoffset:0;stroke-opacity:1;visibility:visible;display:inline;overflow:visible"
         sodipodi:nodetypes="cccc" />
    </g>
    <rect
       id="rect1316"
       x="0.50106651"
       y="3.501066"
       width="22.997868"
       height="16.997868"
       ry="0.76308256"
       rx="0.87324154"
       style="fill:url(#radialGradient2507);fill-opacity:1;fill-rule:evenodd;stroke:url(#linearGradient2509);stroke-width:1.00213301;stroke-linecap:round;stroke-linejoin:round;stroke-miterlimit:4;stroke-dasharray:none;stroke-dashoffset:0;stroke-opacity:1" />
    <rect
       ry="0"
       rx="0.66393489"
       y="5.5000005"
       x="1"
       height="1.4999993"
       width="21.999165"
       id="rect1436"
       style="opacity:0.2;fill:url(#linearGradient2504);fill-opacity:1;fill-rule:evenodd;stroke:none;stroke-width:1.00000012;stroke-linecap:butt;stroke-linejoin:miter;marker:none;marker-start:none;marker-mid:none;marker-end:none;stroke-miterlimit:4;stroke-dasharray:none;stroke-dashoffset:0;stroke-opacity:1;visibility:visible;display:inline;overflow:visible" />
    <path
       sodipodi:nodetypes="ccscccsc"
       id="rect2311"
       d="M 1.7057386,4.000319 C 8.5783729,4.000319 15.517814,4.0045901 22.390446,4.0045901 C 23.122224,4.079207 22.988305,4.4840973 22.993492,4.9585154 C 23.0026,5.7918501 22.981702,5.9709623 22.996527,5.9737009 C 20.274846,6.0098594 16.998618,5.9680839 14.275772,5.9783612 C 10.079687,5.9783612 5.2017602,5.9766118 1.0056755,5.9766118 C 1.0095629,5.9827702 1.0072122,5.782871 1.0072122,4.8478171 C 1.0072122,4.4081842 1.2588561,3.9867485 1.7057386,4.000319 z"
       style="fill:url(#linearGradient2501);fill-opacity:1;fill-rule:evenodd;stroke:none;stroke-width:1.00000012;stroke-linecap:butt;stroke-linejoin:miter;marker:none;marker-start:none;marker-mid:none;marker-end:none;stroke-miterlimit:4;stroke-dasharray:none;stroke-dashoffset:0;stroke-opacity:1;visibility:visible;display:inline;overflow:visible" />
    <path
       sodipodi:type="inkscape:offset"
       inkscape:radius="0.48122323"
       inkscape:original="M 3.21875 6.4375 C 2.2721892 6.4375 1.5 7.2096893 1.5 8.15625 L 1.5 24.15625 L 46.5 17.03125 L 46.5 8.15625 C 46.5 7.2096892 45.727811 6.4375 44.78125 6.4375 L 3.21875 6.4375 z "
       style="opacity:0.2;fill:url(#linearGradient2511);fill-opacity:1;fill-rule:evenodd;stroke:none;stroke-width:1.00213289;stroke-linecap:round;stroke-linejoin:round;stroke-miterlimit:4;stroke-dasharray:none;stroke-dashoffset:0;stroke-opacity:1"
       id="path3333"
       d="M 3.21875,5.96875 C 2.010473,5.96875 1.03125,6.9479731 1.03125,8.15625 L 1.03125,24.15625 C 1.0340218,24.290853 1.0930478,24.418142 1.1939998,24.507217 C 1.2949518,24.596292 1.4285991,24.63901 1.5625,24.625 L 46.5625,17.5 C 46.793979,17.463493 46.965514,17.265567 46.96875,17.03125 L 46.96875,8.15625 C 46.96875,6.9479731 45.989527,5.96875 44.78125,5.96875 L 3.21875,5.96875 z"
       transform="matrix(0.4789598,0,0,0.4571872,0.5049639,1.2696079)" />
    <rect
       id="rect2232"
       x="1.5010664"
       y="4.5010667"
       width="20.997868"
       height="14.997867"
       ry="0.38678172"
       rx="0.45332429"
       style="opacity:0.4;fill:none;fill-opacity:1;fill-rule:evenodd;stroke:url(#linearGradient2497);stroke-width:1.00213301;stroke-linecap:round;stroke-linejoin:round;stroke-miterlimit:4;stroke-dasharray:none;stroke-dashoffset:0;stroke-opacity:1" />
  </g>
</svg>
